REACT_GL/src/assets/GymIcon.svg

<svg fill="none" height="70" viewBox="0 0 90 70" width="90" xmlns="http://www.w3.org/2000/svg"><g stroke="#090909" stroke-linejoin="round"><g stroke-width="2"><path d="m26.7511 12.3818h-2.816c-1.5552 0-2.816 1.2474-2.816 2.786v39.0035c0 1.5387 1.2608 2.786 2.816 2.786h2.816c1.5553 0 2.816-1.2473 2.816-2.786v-39.0035c0-1.5386-1.2607-2.786-2.816-2.786z"/><path d="m18.3039 19.3467h-2.816c-1.5553 0-2.816 1.2473-2.816 2.7859v25.0737c0 1.5387 1.2607 2.786 2.816 2.786h2.816c1.5552 0 2.816-1.2473 2.816-2.786v-25.0737c0-1.5386-1.2608-2.7859-2.816-2.7859z"/><path d="m9.85563 24.9189h-2.816c-1.55523 0-2.816 1.2474-2.816 2.786v13.9298c0 1.5387 1.26077 2.786 2.816 2.786h2.816c1.55527 0 2.81597-1.2473 2.81597-2.786v-13.9298c0-1.5386-1.2607-2.786-2.81597-2.786z"/><path d="m63.3592 56.957h2.816c1.5552 0 2.816-1.2473 2.816-2.7859v-39.0036c0-1.5386-1.2608-2.7859-2.816-2.7859h-2.816c-1.5552 0-2.816 1.2473-2.816 2.7859v39.0036c0 1.5386 1.2608 2.7859 2.816 2.7859z"/><path d="m71.8075 49.9922h2.816c1.5552 0 2.816-1.2473 2.816-2.786v-25.0737c0-1.5386-1.2608-2.7859-2.816-2.7859h-2.816c-1.5553 0-2.816 1.2473-2.816 2.7859v25.0737c0 1.5387 1.2607 2.786 2.816 2.786z"/><path d="m80.2557 44.4209h2.816c1.5552 0 2.816-1.2473 2.816-2.786v-13.9298c0-1.5387-1.2608-2.786-2.816-2.786h-2.816c-1.5552 0-2.816 1.2473-2.816 2.786v13.9298c0 1.5387 1.2608 2.786 2.816 2.786z"/></g><path d="m29.5674 34.6699h30.976" stroke-width="4"/></g></svg>

<svg width="90" height="70" viewBox="0 0 90 70" fill="none" xmlns="http://www.w3.org/2000/svg">
<path d="M26.7511 12.3818H23.9351C22.3799 12.3818 21.1191 13.6292 21.1191 15.1678V54.1713C21.1191 55.71 22.3799 56.9573 23.9351 56.9573H26.7511C28.3064 56.9573 29.5671 55.71 29.5671 54.1713V15.1678C29.5671 13.6292 28.3064 12.3818 26.7511 12.3818Z" stroke="#090909" stroke-width="2" stroke-linejoin="round"/>
<path d="M18.3039 19.3467H15.4879C13.9326 19.3467 12.6719 20.594 12.6719 22.1326V47.2063C12.6719 48.745 13.9326 49.9923 15.4879 49.9923H18.3039C19.8591 49.9923 21.1199 48.745 21.1199 47.2063V22.1326C21.1199 20.594 19.8591 19.3467 18.3039 19.3467Z" stroke="#090909" stroke-width="2" stroke-linejoin="round"/>
<path d="M9.85563 24.9189H7.03963C5.4844 24.9189 4.22363 26.1663 4.22363 27.7049V41.6347C4.22363 43.1734 5.4844 44.4207 7.03963 44.4207H9.85563C11.4109 44.4207 12.6716 43.1734 12.6716 41.6347V27.7049C12.6716 26.1663 11.4109 24.9189 9.85563 24.9189Z" stroke="#090909" stroke-width="2" stroke-linejoin="round"/>
<path d="M63.3592 56.957H66.1752C67.7304 56.957 68.9912 55.7097 68.9912 54.1711V15.1675C68.9912 13.6289 67.7304 12.3816 66.1752 12.3816H63.3592C61.804 12.3816 60.5432 13.6289 60.5432 15.1675L60.5432 54.1711C60.5432 55.7097 61.804 56.957 63.3592 56.957Z" stroke="#090909" stroke-width="2" stroke-linejoin="round"/>
<path d="M71.8075 49.9922H74.6235C76.1787 49.9922 77.4395 48.7449 77.4395 47.2062V22.1325C77.4395 20.5939 76.1787 19.3466 74.6235 19.3466H71.8075C70.2522 19.3466 68.9915 20.5939 68.9915 22.1325V47.2062C68.9915 48.7449 70.2522 49.9922 71.8075 49.9922Z" stroke="#090909" stroke-width="2" stroke-linejoin="round"/>
<path d="M80.2557 44.4209H83.0717C84.6269 44.4209 85.8877 43.1736 85.8877 41.6349V27.7051C85.8877 26.1664 84.6269 24.9191 83.0717 24.9191H80.2557C78.7005 24.9191 77.4397 26.1664 77.4397 27.7051V41.6349C77.4397 43.1736 78.7005 44.4209 80.2557 44.4209Z" stroke="#090909" stroke-width="2" stroke-linejoin="round"/>
<path d="M29.5674 34.6699H60.5434" stroke="#090909" stroke-width="4" stroke-linejoin="round"/>
</svg>
